X:1
T:Title
%%score [ 1 2 3 4 ]
L:1/8
Q:1/4=120
M:2/2
K:C
V:1 treble nm="MusicXML Part"
V:2 treble nm="MusicXML Part"
V:3 treble-8 nm="MusicXML Part"
V:4 bass nm="MusicXML Part"
V:1
 z8 | z8 | A4"^Magnificat Quarti Toni \"Anima mea\"" A2"^Christobal de Morales" G2 | A4 B4 | %4
w: ||A- ni- ma|me- a|
 G6 E2 |"^1545" E8- |[M:2/2] E4 z4 | z4 z2 E2 | E2 D2 E4 | F4 G4- | G2 E2 E3 F | G2 A4 G2 | %12
w: do- mi-|num,||a-|ni- ma me-|a do-|* * mi- *||
 c2 B2 A4- | A2 ^G^F"^Et exultavit spiritus \nmeus in deo salutari\nmeo." G4- | G8 ||[M:2/2] z8 | %16
w: |* * * num.|||
 z8 | z8 | A8 | G4 G4 | A4 A4 |[M:2/2] A4 z2 G2 | A2 c2 B4 | E4 z2 G2 | A2 c4 B2- | BA A4 ^G2 | %26
w: ||Qui-|a re-|* spe-|­xit hu-|mi- li- ta-|tem an-|cil- lae su-||
 A6 G2 | F3 E/D/ C2 c2- | c2 A2 c2 B2 | A4 z2 B2 | c3 c c2 c2 | A2 B3 A A2- | A2 ^G2 A4 | z8 | z8 | %35
w: |* * * ae. Ec-|* ce, e- *|nim ex|hoc be- a- tam|me di- * *|* * cent|||
 A6 A2 | A4 G4 | A2 B2 G4- | G2 E2 E4- | E4 z4 | z2 A4 A2 | A4 G4 | A2 B2 G4- | G2 E2 E2 F2- | %44
w: om- nes|ge- ne-|ra- ti- o-|* * nes,||om- nes|ge- ne-|ra- ti- o-||
 FE E4 D2 | E8- | E8- |"^Quia fecit mihi magna,\nqui potens est, et sanc-\ntum nomen eius." E8 || %48
w: |nes.|||
[M:2/2] z8 | z8 | z8 | z4 A4 | A2 A4 G2 | A2 G2 EFGA |[M:2/2] B2 c3 B G2 | A4 G2 B2- | %56
w: |||Et|mi- se- ri-|cor- * di * * *|­a e * *||
 B2 A2 B2 A2- | A^G G2 A4 | z8 | z2 A4 G2 | A2 B2 A4- | A2 G2 A2 B2- | BA A4 ^G2 | A4 z2 E2- | %64
w: |* * * ius||a pro-|­ge- ni- e|* in pro- ge-|* * * ni-|es, a|
 E2 D2 E3 F | G4 z2 c2- | c2 B2 G2 A2 | E2 G2 F4 | E2 c4 B2- | BA A4 ^G2 | A4 z4 | z8 | A4 G2 A2 | %73
w: * pro- ge- ni-|e in|* pro- ge *|||* * * ni-|es||ti- men- ti-|
 B8 | G8 | E8 | z8 | A4 G4 | A4 B4 | G6 E2 | E8- | %81
w: bus|e-|um,||ti- men-|­ti- bus|e- *|um.|
"^Fecit potentiam in\nbrachio suo. \nDispersit superbos\nmente cordis sui." E8 ||[M:2/2] z8 | z8 | %84
w: |||
 z8 | z8 | z8 | A4 G4 |[M:2/2] G4 A3 B | c2 B2 c2 B2- | BA A4 G2 | A2 c2 A2 B2- | BA A4 ^G2 | A8 | %94
w: |||De- *|­po- * *|* su- it po-|* * ten- *|tes de se *||de|
 z2 B2 B2 B2 | B2 A2 G2 G2 | A2 D2 D2 D2 | A4 B4 | G2 A2 D4 | z2 G2 G2 G2 | A3 G F2 D2 | %101
w: et ex- al-|ta- vit hu- mi-|les, et ex- al-|ta- vit|hu- mi- les,|et ex- al-|ta- * * vit|
 G3 A B2 A2- | A2 ^G2 A4 | z2 F2 G2 G2 | G2 c2 B2 c2 | A3 G F4- | F4 E4 | %107
w: hu * * *|* mi- les,|et ex- al-|ta- vit hu- *||* mi-|
"^Esurientes implevit bonis\net divites dimisit inanes." E8 ||[M:2/2] A8 | G4 G4 | A6 B2 | %111
w: les.|Sus-|ce- pit|Is- ra-|
 c3 B cd c2- | c2 BA B2 c2 | d3 c B2 A2- | A2 ^G^F G3 A |[M:2/2] B2 c2 G4 | A2 B3 G B2 | %117
w: el * * * *|* * * * pu-|e * * *||­rum su- um,|pu- e- * *|
 A2 c3 B A2 | G2 A4 ^G2 | A8 | z4 A4- | A2 A2 A4 | A2 A2 A2 A2 | G4 A4 | B8 | G4 E4- | E4 z4 | %127
w: rum su- * *||um|re-|* cor- da-|tus mi- se- ri-|cor- di-|ae|su- ae,||
 z4 A4 | A2 A2 G4 | A6 B2- | B4 G4- | G4 E2 F2- | FE E4 D2 | E8- | %134
w: mi-|se- ri- cor-|di- ae|* su-|||ae.|
"^Sicut locutus est ad patres \nnostros, Abraham et semini\neius in saecula." E8 ||[M:2/2] z4 A4- | %136
w: |Glo-|
 A4 G4 | B4 A4- | A2 ^G^F G4 | B4 c4 | d6 B2 | c3 B cd e2- |[M:2/2] e2 dc d2 c2- | c2 B4 A2- | %144
w: * ri-|a pa-|* * * tri|et *|fi- *||||
 A2 ^G^F G4 | A8 | z8 | z4 A4 | c6 c2 | B2 A2 d3 c | BA G3 F A2- | A2 ^G^F G2 B2- | BB B2 A2 c2- | %153
w: * * * li-|o||et|spi- ri-|tu- i sanc *||* * * to, et|* spi- ri- tu- i|
 c2 B3 A A2- | A2 G2 A4 | z2 A3 A A2 | B3 A G2 F2 | E8- | E8 |] %159
w: * sanc * *|* * to,|et spi- ri-|tu- i sanc *|to.||
V:2
 z4 E4 | E2 D2 E4 | FEFG F2 E2- | E2 D2 G3 F | ED E3 D C2- | C2 B,2 C2 A,2- | %6
w: A-|ni- ma me-|a * * * * do-||||
w: ||||||
w: ||||||
[M:2/2] A,2 G,A, B,C D2- | DC A,2 B,4 | C2 A,2 B,3 C | D8 | C3 B, G,2 C2- | C2 B,A, B,4 | %12
w: ||||* * * do-||
w: ||||mi- * num, *||
w: ||||||
 A,2 B,2 C4 | B,8- | B,8 ||[M:2/2] z8 | z4 E4 | D2 C2 F2 E2- | E2 DC D4 | E4 z2 E2 | D2 C2 F4- | %21
w: * * mi-|num.|||Qui-|a re- spe *||xit hu-|mi- li- ta-|
w: |||||||||
w: |||||||||
[M:2/2] F4 E4- | E2 C2 D2 D2 | C4 D2 E2 | C3 D EF G2- | GFED E4- | E2 C2 D2 E2- | ED D2 E4- | %28
w: * tem|* an- cil- lae|su- * *||* * * * ae,|* su- * *|* * * ae.|
w: |||||||
w: |||||||
 E4 E2 E2 | E4 E4- | E4 z2 E2 | F3 F F2 E2 | D2 E2 C4- | C4 D4- | D4 B,3 C | DE F4 E2 | F2 ED E4 | %37
w: * Ec- ce,|e- nim|* ex|hoc be- a- tam|me di- *|* cent,|* ex *|* * hoc be-|a * * tam|
w: |||||||||
w: |||||||||
 C2 D2 E3 D | B,2 C2 B,4 | C2 B,A, B,4 | z4 z2 E2- | E2 D2 E2 B,2 | C2 B,2 C2 D2 | E3 D B,2 D2- | %44
w: me di * *||* * * cent|om-|* nes ge- ne-|ra- ti- o- *||
w: |||||||
w: |||||||
 DB, C2 A,4- | A,2 G,F, G,2 A,2- | A,2 B,2 C4 | B,8 ||[M:2/2] z8 | E4 E2 E2- | E2 D2 E2 D2 | %51
w: |||nes.||Et mi- se-|* ri- cor- di|
w: |||||||
w: |||||||
 B,2 D4 C2 | E2 F2 D4 | E4 z4 |[M:2/2] E4 E2 E2- | E2 D2 E2 D2 | B,2 D4 C2 | B,4 A,4 | z2 E4 D2 | %59
w: a e- *||ius,|||||a pro-|
w: |||et mi- se-|* ri- cor- di|a e- *|* ius,||
w: ||||||||
 E2 F2 E3 D | EF G4 F2 | E6 D2 | E2 F2 D4- | D2 CB, C4 | z4 z2 E2- | E2 D2 E3 F | G2 D2 E2 C2- | %67
w: ge- ni- e *|* * in pro-|ge- *||* ni * es,|a|* pro- ge- ni-|­e in pro- ge|
w: ||||||||
w: ||||||||
 CD E4 D2 | E8 | A,4 B,4 | A,4 E4 | D2 E2 F2 E2- | ED D2 E4 | z2 E2 D2 B,2 | C2 E3 D D2- | %75
w: ||ni- *|es ti-|men- ti- bus e-|* * * um,|ti- men- ti-|bus e * *|
w: ||||||||
w: ||||||||
 D2 CB, C3 D | EF G3 F E2- | E2 D2 z2 E2 | D2 C2 G3 F | ED E3 DCB, | C2 B,2 C4 | B,8 ||[M:2/2] z8 | %83
w: ||* um, ti-|­men- ti- bus *||* e- *|um.||
w: ||||||||
w: ||||||||
 z8 | z8 | z8 | E4 D4 | D4 E4- |[M:2/2] E2 E2 E4 | E4 E4- | E4 D4 | E4 F4- | F4 E4 | z4 E4 | %94
w: |||De- *|po- *|* su- it|po- ten-|* tes|de se-|* de|et|
w: |||||||||||
w: |||||||||||
 E4 D4- | D4 E4 | F8 | D8- | D4 B,4 | B,8 | z8 | E8 | E8 | D8 | E8 | F4 D4- | D4 B,4 | B,8 || %108
w: ex- al-|* ta-|vit|hu-|* mi-|­les,||et|ex-|al-|ta-|vit hu-|* mi-|les.|
w: ||||||||||||||
w: ||||||||||||||
[M:2/2] z8 | E8 | D4 D4 | E6 E2 | E4 E4 | F4 F4 | E8- |[M:2/2] E8 | F4 G4 | C8 | E4 z2 E2- | %119
w: |Sus-|ce- pit|Is- ra-|el pu-|e- rum|su-||||um re-|
w: |||||||||||
w: |||||||||||
 E2 E2 E4 | A,2 E2 E2 E2 | F6 E2 | F3 E C2 E2- | E2 D4 C2 | B,4 z2 E2 | E2 B,2 C3 C | %126
w: * cor- da-|tus mi- se- ri-|­cor- *|* di- ae su-||ae, mi-|se- ri- cor- di-|
w: |||||||
w: |||||||
 C2 B,2 A,2 C2 | D2 E3 D F2 | E2 F2 D4 | E4 z2 E2 | E2 B,2 C4 | B,2 G,2 A,2 F,G, | A,B, C2 A,4 | %133
w: ae su * *|||ae, mi-|se- ri- cor-|||
w: |||||||
w: |||||di- * ae su *||
 B,8- | B,8 ||[M:2/2] E8 | D8 | D8 | E6 E2 | E8 | D8 | E8 |[M:2/2] F6 E2 | E8- | E8 | z4 E4 | E8 | %147
w: ae.||Glo-||ri-|* a|pa-|tri|et|fi- li-|o||et|spi-|
w: ||||||||||||||
w: ||||||||||||||
 D8 | E8 | F8 | D8 | B,8 | z4 E4 | E8 | D4 E4- | E4 F4 | D8 | B,8- | B,8 |] %159
w: ri-|­tu-|i|sanc-|to,|et|spi-|ri- tu-|* i|sanc-|to.||
w: ||||||||||||
w: ||||||||||||
V:3
 z8 | z8 | z8 | z8 | z4 z2 A2 | A2 G2 A4 |[M:2/2] B4 G4- | G2 F2 E4 | z2 A2 A2 G2 | A4 B4 | G6 E2 | %11
w: ||||A-|ni- ma me-|­a do-|* mi- num,|a- ni- ma|me- a|do- mi-|
 E8- | E8- | E8- | E8 ||[M:2/2] z4 A4- | A4 G4 | G4 A4 | A4 A4 | z2 e2 d2 c2 | f2 e4 dc | %21
w: ­num.||||Qui-|* a|re- *|spe- xit|hu- mi- li-|ta * * *|
[M:2/2] d4 B2 c2- | cB A4 G2 | A4 B4 | A4 z2 e2 | d2 c2 B4 | A4 z4 | A2 A2 A4 | A4 z2 B2 | %29
w: |||tem an-|cil- lae su-|­ae.|Ec- ce, e-|nim ex|
 c3 c c2 B2 | A4 A4 | d6 c2 | B4 A4- | A2 G2 A2 B2- | BA A4 G2 | A2 d4 c2 | d2 A2 c3 B | %37
w: hoc be- a- *|tam me||di- *|||cent om- nes|ge- ne- ra- ti-|
 A2 G2 c3 B | G2 A2 E4 | z2 e4 d2 | e2 A2 c3 B | A4 B2 e2- | e2 d2 e2 B2 | c3 B G2 A2- | AG E2 F4 | %45
w: o * * *|* * nes,|om- nes|ge- ne- ra- ti-|o- nes, om-|* nes ge- ne-|ra- ti- o- *||
 E8- | E8- | E8 ||[M:2/2] A4 A2 A2- | A2 G2 A2 G2 | E2 G4 F2 | G4 A3 B | c2 d2 B4 | A2 c4 BA | %54
w: nes.|||Et mi- se-|* ri- cor- di-|a e- *||­ * *||
[M:2/2] G2 A3 G E2 | F4 E2 G2- | G2 F2 G2 A2 | E4 z2 A2- | A2 G2 A2 B2 | A3 G AB c2- | %60
w: |* ius a|* pro- ge- ni-|e, a|* pro- ge- ni-|e * * * in|
 c2 B2 c2 d2 | A2 c4 B2 | c2 d2 B4 | z2 A4 A2 | G2 F2 c4- | c2 B2 A4 | G4 z2 A2- | A2 G2 A2 B2 | %68
w: * pro- ge *||* ni- es,|in pro-|ge * *|* * ni-|­es, in|* pro- ge *|
 c3 B A2 E2 | F4 E4 | z2 A2 G2 A2 | B2 A4 G2 | F4 E2 A2 | G2 E2 G4 | z2 c2 B2 G2 | A4 z2 A2 | %76
w: |ni- es|ti- men- ti-|bus e- *|* um, ti-|men- ti- bus,|ti- men- ti-|bus, ti-|
 G2 E2 G4 | F4 E4 | z2 A2 G2 G2 | c3 B G2 A2- | A2 G2 A4 | E8 ||[M:2/2] A4 G4 | G4 A3 B | %84
w: men- ti- bus|e- um|ti- men- ti-|bus * * e||um.|De- *|po- * *|
 cd e4 dc | B2 d2 c3 B | G2 B4 AG | A3 B c2 BA |[M:2/2] B4 z2 A2 | A2 G2 A2 B2 | c4 z2 d2 | %91
w: |||* * * su *|­it po-|ten- tes de se-|de, po-|
 d2 c2 d4- | d4 B4 | A2 c2 c2 c2 | B2 G2 B3 A | Bc d3 ccB | d3 c B2 AG | A2 F2 G3 A | B2 A2 G2 d2 | %99
w: ten- tes de|* se-|de et ex- al-|­ta- vit hu *||||* mi- les, et|
 d2 d2 e3 d | cB c4 B2 | c2 G4 A2 | B4 z2 A2 | A2 A2 B4 | c3 B G2 A2- | AD d3 c A2 | B2 A4 ^G^F | %107
w: ex- al- ta- *||vit hu- mi-|les, et|ex- al- ta-|* * vit hu-||* * mi- *|
 ^G8 ||[M:2/2] z8 | z8 | z8 | A8 | G4 G4 | A4 d4 | c2 BA B4 |[M:2/2] G3 A B2 G2 | d4 B2 G2 | %117
w: les.||||Sus-|ce- pit|Is- ra-|el * * *|pu- * * *|e- rum su-|
 A3 G AB c2- | c2 BA B4 | A4 z2 c2- | c2 c2 c4 | d2 A2 d2 c2 | d3 c A2 c2- | c2 B4 A2- | %124
w: ||um re-|* cor- da-|­tus mi- se- ri-|cor- * * di-|* ae su-|
 A2 ^G^F G3 A | B2 G2 A4 | z4 z2 A2 | A2 E2 FGAB | c2 d2 B4 | A2 c4 BA | G4 z2 e2 | e2 B2 c2 A2- | %132
w: |* * ae,|mi-|­se- ri- cor * * *|* di- ae|su * * *|ae, mi-|se- ri- cor- di-|
 AG E2 F4 | E8- | E8 ||[M:2/2] c8 | A4 B4- | B2 G2 A4 | B6 c2 | B2 E4 A2- | A2 GF G4 | A8- | %142
w: * * ae su-|ae.||Glo-|ri- a|* pa- tri|et fi||||
[M:2/2] A8 | G4 c4 | B8 | A4 z2 A2 | c6 B2 | A2 G2 F4 | E4 z2 A2 | d3 c B2 A2 | B3 A G2 F2 | %151
w: ||li-|o et|spi- ri-|tu- i sanc-|­to, et|spi- ri- tu- i|sanc- * * *|
 E2 e3 e e2 | d2 B2 c2 A2- | A2 G2 A4 | B4 A2 c2- | cc c2 A2 d2- | dc B4 A2- | A2 ^G^F G4- | G8 |] %159
w: to, et spi- ri-|tu- i sanc- *||* to, et|* spi- ri- tu- i|* * * sanc-|* * * to.||
V:4
 A,4 A,2 G,2 | A,2 B,2 G,2 A,2- | A,G,F,E, D,2 E,2 | F,4 E,4- | E,4 z4 | z4 A,,4 | %6
w: A- ni- ma|me * a do-||mi- num,||a-|
[M:2/2] E,3 F, G,A, B,2- | B,A, A,4 G,2 | A,2 F,2 E,4 | D,4 G,4 | C,8 | z2 A,,2 E,2 E,2 | %12
w: * * * * ni|* * * ma|me- * a|do- mi-|num,|a- ni- ma|
 A,,2 G,,2 A,,3 A,, | E,8- | E,8 ||[M:2/2] E,4 D,2 C,2 | F,4 E,4 | z2 E,2 D,2 C,2 | %18
w: me- a do- mi-|num.||Qui- a re-|spe- xit,|qui- a re-|
"^© Michael Wendel 2006\nThis edition may be freely duplicated, distributed, performed or recorded for non-profit performance or use.\n" F,8 | %19
w: spe-|
 E,3 F, G,2 C,2 | z4 z2 D,2 |[M:2/2] D,2 D,2 E,4 | A,,4 z4 | z2 A,2 G,2 E,2 | F,3 E, C,D,E,F, | %25
w: * * * xit|hu-|­mi- li- ta-|tem|an- cil- lae|su * * * * *|
 G,2 A,2 E,4 | z2 F,4 C,2 | D,4 A,,4 | z2 C4 G,2 | A,4 E,4 | z8 | z8 | z2 E,2 F,3 F, | %33
w: * * ae.|Ec- ce,|e- nim,|ec- ce,|e- nim|||ex hoc be-|
 F,2 E,2 D,2 G,2- | G,F, D,2 E,4 | D,4 z4 | z8 | z8 | z2 A,4 G,2 | A,2 E,2 G,3 F, | %40
w: a- tam me di||cent|||om- nes|ge- ne- ra- *|
 E,2 D,2 A,3 G, | F,4 E,4 | z8 | z4 z2 D,2- | D,2 C,2 D,4 | A,,2 C,3 B,, A,,2- | A,,2 G,,2 A,,4 | %47
w: * ti- o- *|* nes,||om-|* nes ge-|ne- ra- * *|* ti- o-|
 E,8 || z8 | z8 | z8 | z8 | z8 | z8 | z8 | z8 | z8 | z8 | z8 | z8 | z8 | z8 | z8 | z8 | z8 | z8 | %66
w: nes.|||||||||||||||||||
 z8 | z8 | z8 | z8 | z8 | z8 | z8 | z8 | z8 | z8 | z8 | z8 | z8 | z8 | z8 | z8 ||[M:2/2] z8 | z8 | %84
w: ||||||||||||||||||
 A,4 G,4 | G,4 A,3 G, | E,2 G,4 F,E, | F,4 E,4- |[M:2/2] E,4 A,,4 | z2 E,2 A,2 G,2 | A,4 B,4 | %91
w: De- *|po- * *||* su-|* it|po- ten- tes|de se-|
 A,4 D,4- | D,4 E,4 | A,,2 A,2 A,2 A,2 | G,2 E,2 G,4- | G,2 F,2 E,4 | D,4 z2 D,2 | %97
w: de, de|* se-|de et ex- al-|­ta- vit hu-|* mi- les|* et|
 D,2 D,2 G,,2 G,2 | G,2 F,2 G,4- | G,4 E,4 | F,3 E, D,4 | C,4 z4 | E,4 A,4 | D,4 G,4 | %104
w: ex- al- ta- vit|hu- * *||* * mi-|les,|et ex-|al- ta-|
 C,3 D, E,2 A,,2 | D,8- | D,4 E,4 | E,8 ||[M:2/2] z8 | z8 | z8 | z8 | E,8 | D,4 D,4 | E,6 E,2 | %115
w: vit * * *|hu-|* mi-|les.|||||Sus-|ce- pit|Is- ra-|
[M:2/2] E,4 E,4 | D,4 E,4 | F,8 | E,8 | z4 A,4- | A,2 A,2 A,4 | D,4 z4 | z8 | z8 | E,6 E,2 | %125
w: ­el pu-|e- rum|su-|um|re-|* cor- da-|­tus,|||re- cor-|
 E,4 A,,2 A,2 | A,2 E,2 F,3 E, | D,2 C,2 D,4 | z8 | z2 A,2 A,2 E,2- | E,F, G,2 C,3 D, | %131
w: da- tus mi-|se- ri- cor- di-|­ae su- ae,||mi- se- ri-|* * * cor- *|
 E,4 A,,2 D,2- | D,2 C,2 D,4 | G,6 E,2 | E,8 ||[M:2/2] A,8 | D,4 G,4- | G,4 F,4 | E,8- | E,4 A,,4 | %140
w: * di- ae|* su- ae,|su- *|ae.|Glo-|ri- a|* pa-|tri|* et|
 B,,4 B,,4 | A,,8 |[M:2/2] D,6 A,,2 | C,2 G,,2 A,,4 | E,8 | z2 A,2 C4- | C2 B,2 A,2 G,2 | %147
w: fi- li-|o,|et fi-|* * li-|o|et spi-|* ri- tu- i|
 F,2 E,2 D,4 | A,,8 | z4 D,4 | G,3 G, G,2 D,2 | E,8 | G,4 A,4 | z8 | z4 z2 A,2- | %155
w: sanc * *|­to,|et|spi- ri- tu- i|sanc-|* to,||et|
 A,A, A,2 D,2 D,2 | G,6 D,2 | E,8- | %158
w: * spi- ri- tu- i|sanc- *|to.|
"^Sicut erat in principio et nunc et semper et in saecula \nsaeculorum. Amen." E,8 |] %159
w: |

